;FLAVOR:Marlin
;TIME:45030
;Filament used: 101.944m
;Layer height: 0.4
;MINX:28.636
;MINY:31.351
;MINZ:0.4
;MAXX:207.836
;MAXY:200.751
;MAXZ:60
;Generated with Cura_SteamEngine 4.13.1
M82 ;absolute extrusion mode
; Ender 3 Custom Start G-code
M104 S230.0 ; Set Extruder temperature
M140 S80 ; Set Heat Bed temperature
M190 S80 ; Wait for Heat Bed temperature
M109 S230.0 ; Wait for Extruder temperature
G28 ; Home all axes
G92 E0 ; Reset Extruder
G1 Z2.0 F3000 ; Move Z Axis up little to prevent scratching of Heat Bed
G1 X0.1 Y20 Z0.3 F5000.0 ; Move to start position
G1 X0.1 Y200.0 Z0.3 F1500.0 E15 ; Draw the first line
G1 X0.4 Y200.0 Z0.3 F5000.0 ; Move to side a little
G1 X0.4 Y20 Z0.3 F1500.0 E30 ; Draw the second line
G92 E0 ; Reset Extruder
G1 Z2.0 F3000 ; Move Z Axis up little to prevent scratching of Heat Bed
; End of custom start GCode
G92 E0
G92 E0
G1 F1500 E-3
;LAYER_COUNT:150
;LAYER:0
M107
;MESH:Piece 83 pt1 (1).stl
G0 F6000 X51.973 Y54.114 Z0.4
;TYPE:WALL-INNER
G1 F1500 E0
G1 F1200 X52.879 Y54.238 E0.09124
G1 X53.793 Y54.238 E0.18244
G1 X54.699 Y54.114 E0.27369
G1 X55.581 Y53.867 E0.36508
G1 X56.419 Y53.503 E0.45624
G1 X57.202 Y53.027 E0.54767
G1 X57.911 Y52.45 E0.63889
G1 X58.536 Y51.782 E0.73016
G1 X59.064 Y51.034 E0.82152
G1 X59.486 Y50.222 E0.91283
G1 X59.791 Y49.359 E1.00416
G1 X59.978 Y48.464 E1.09539
G1 X60.036 Y47.601 E1.1817
G1 X60.036 Y39.501 E1.98992
G1 X59.978 Y38.638 E2.07622
G1 X59.791 Y37.743 E2.16746
G1 X59.486 Y36.879 E2.25888
G1 X59.064 Y36.067 E2.35019
G1 X58.536 Y35.319 E2.44155
G1 X57.912 Y34.652 E2.53268
G1 X57.202 Y34.072 E2.62416
G1 X56.418 Y33.599 E2.71552
G1 X55.583 Y33.234 E2.80645
G1 X54.699 Y32.987 E2.89804
G1 X53.793 Y32.863 E2.98928
G1 X52.879 Y32.863 E3.08048
G1 X51.973 Y32.987 E3.17172
G1 X51.09 Y33.234 E3.26321
G1 X50.254 Y33.599 E3.35423
G1 X49.47 Y34.072 E3.4456
G1 X48.76 Y34.652 E3.53707
G1 X48.135 Y35.32 E3.62835
G1 X47.608 Y36.069 E3.71973
G1 X47.187 Y36.879 E3.81082
G1 X46.881 Y37.743 E3.90228
G1 X46.695 Y38.638 E3.99349
G1 X46.636 Y39.499 E4.0796
G1 X46.636 Y47.603 E4.88822
G1 X46.695 Y48.464 E4.97433
G1 X46.881 Y49.359 E5.06555
G1 X47.189 Y50.222 E5.15698
G1 X47.608 Y51.032 E5.24797
G1 X48.135 Y51.781 E5.33935
G1 X48.761 Y52.45 E5.43077
G1 X49.47 Y53.027 E5.52198
G1 X50.254 Y53.503 E5.6135
G1 X51.092 Y53.867 E5.70466
G1 X51.973 Y54.114 E5.79596
G0 F6000 X52.095 Y53.525
G1 F1200 X52.92 Y53.638 E5.87905
G1 X53.752 Y53.638 E5.96206
G1 X54.577 Y53.525 E6.04515
G1 X55.38 Y53.3 E6.12836
G1 X56.142 Y52.969 E6.21126
G1 X56.855 Y52.536 E6.29449
G1 X57.501 Y52.01 E6.37762
G1 X58.07 Y51.402 E6.4607
G1 X58.55 Y50.721 E6.54384
G1 X58.934 Y49.982 E6.62694
G1 X59.212 Y49.197 E6.71003
G1 X59.382 Y48.382 E6.7931
G1 X59.436 Y47.581 E6.87321
G1 X59.436 Y39.521 E7.67744
G1 X59.382 Y38.72 E7.75754
G1 X59.212 Y37.905 E7.84061
G1 X58.934 Y37.119 E7.9238
G1 X58.55 Y36.38 E8.0069
G1 X58.07 Y35.699 E8.09003
G1 X57.501 Y35.091 E8.17312
G1 X56.855 Y34.564 E8.25631
G1 X56.142 Y34.133 E8.33944
G1 X55.381 Y33.801 E8.42229
G1 X54.577 Y33.576 E8.50559
G1 X53.752 Y33.463 E8.58868
G1 X52.92 Y33.463 E8.6717
G1 X52.095 Y33.576 E8.75478
G1 X51.292 Y33.801 E8.83799
G1 X50.53 Y34.133 E8.92093
G1 X49.817 Y34.564 E9.00406
G1 X49.171 Y35.091 E9.08725
G1 X48.602 Y35.699 E9.17034
G1 X48.122 Y36.381 E9.25355
G1 X47.739 Y37.119 E9.33652
G1 X47.46 Y37.905 E9.41974
G1 X47.291 Y38.72 E9.50279
G1 X47.236 Y39.52 E9.5828
G1 X47.236 Y47.582 E10.38723
G1 X47.291 Y48.382 E10.46724
G1 X47.46 Y49.197 E10.55029
G1 X47.74 Y49.982 E10.63346
G1 X48.122 Y50.72 E10.71637
G1 X48.602 Y51.402 E10.79959
G1 X49.171 Y52.01 E10.88268
G1 X49.817 Y52.536 E10.9658
G1 X50.53 Y52.969 E11.04904
G1 X51.293 Y53.3 E11.13202
G1 X52.095 Y53.525 E11.21514
G0 F6000 X52.217 Y52.936
;TYPE:WALL-OUTER
G1 F1200 X52.961 Y53.038 E11.29007
G1 X53.711 Y53.038 E11.3649
G1 X54.455 Y52.936 E11.43983
G1 X55.179 Y52.733 E11.51486
G1 X55.866 Y52.435 E11.58958
G1 X56.508 Y52.045 E11.66453
G1 X57.09 Y51.571 E11.73943
G1 X57.603 Y51.022 E11.8144
G1 X58.036 Y50.408 E11.88937
G1 X58.382 Y49.742 E11.96426
G1 X58.633 Y49.035 E12.03911
G1 X58.786 Y48.3 E12.11403
G1 X58.836 Y47.561 E12.18793
G1 X58.836 Y39.541 E12.98817
G1 X58.786 Y38.802 E13.06208
G1 X58.633 Y38.067 E13.13699
G1 X58.382 Y37.359 E13.21194
G1 X58.036 Y36.693 E13.28683
G1 X57.603 Y36.079 E13.36179
G1 X57.09 Y35.53 E13.43677
G1 X56.508 Y35.056 E13.51166
G1 X55.866 Y34.667 E13.58656
G1 X55.179 Y34.368 E13.66132
G1 X54.455 Y34.165 E13.73635
G1 X53.711 Y34.063 E13.81128
G1 X52.961 Y34.063 E13.88612
G1 X52.217 Y34.165 E13.96105
G1 X51.494 Y34.368 E14.03598
G1 X50.806 Y34.667 E14.11083
G1 X50.164 Y35.056 E14.18573
G1 X49.582 Y35.53 E14.26063
G1 X49.069 Y36.079 E14.3356
G1 X48.636 Y36.693 E14.41057
G1 X48.291 Y37.359 E14.48541
G1 X48.039 Y38.067 E14.56039
G1 X47.887 Y38.802 E14.63528
G1 X47.836 Y39.541 E14.7092
G1 X47.836 Y47.561 E15.50943
G1 X47.887 Y48.3 E15.58335
G1 X48.039 Y49.035 E15.65824
G1 X48.291 Y49.742 E15.73313
G1 X48.636 Y50.408 E15.80797
G1 X49.069 Y51.022 E15.88294
G1 X49.582 Y51.571 E15.95791
G1 X50.164 Y52.045 E16.03281
G1 X50.806 Y52.435 E16.10776
G1 X51.494 Y52.733 E16.18257
G1 X52.217 Y52.936 E16.2575
G0 F6000 X52.083 Y53.582
G1 F1500 E13.2575
G0 F6000 X46.389 Y50.571
G0 X47.458 Y34.77
G0 X48.816 Y33.448
G0 X32.957 Y33.454
G0 X32.249 Y33.663
G0 X31.626 Y34.062
G0 X31.128 Y34.637
G0 X30.819 Y35.312
G0 X30.707 Y36.11
G0 X30.737 Y196.413
G0 X30.949 Y197.138
G0 X31.348 Y197.762
G0 X31.92 Y198.259
G0 X32.604 Y198.569
G0 X33.243 Y198.658
G0 X51.973 Y199.114
;TYPE:WALL-INNER
G1 F1500 E16.2575
G1 F1200 X52.879 Y199.238 E16.34875
G1 X53.793 Y199.238 E16.43994
G1 X54.699 Y199.114 E16.53119
G1 X55.581 Y198.867 E16.62258
G1 X56.419 Y198.503 E16.71374
G1 X57.202 Y198.027 E16.80518
G1 X57.911 Y197.45 E16.89639
G1 X58.536 Y196.782 E16.98767
G1 X59.064 Y196.034 E17.07902
G1 X59.486 Y195.222 E17.17033
G1 X59.791 Y194.359 E17.26166
G1 X59.978 Y193.464 E17.3529
G1 X60.036 Y192.601 E17.4392
G1 X60.036 Y184.501 E18.24742
G1 X59.978 Y183.638 E18.33373
G1 X59.791 Y182.743 E18.42496
G1 X59.486 Y181.879 E18.51638
G1 X59.064 Y181.067 E18.60769
G1 X58.536 Y180.319 E18.69905
G1 X57.912 Y179.652 E18.79019
G1 X57.202 Y179.072 E18.88166
G1 X56.418 Y178.599 E18.97303
G1 X55.583 Y178.234 E19.06396
G1 X54.699 Y177.987 E19.15554
G1 X53.793 Y177.863 E19.24678
G1 X52.879 Y177.863 E19.33798
G1 X51.973 Y177.987 E19.42923
G1 X51.09 Y178.234 E19.52071
G1 X50.254 Y178.599 E19.61174
G1 X49.47 Y179.072 E19.7031
G1 X48.76 Y179.652 E19.79457
G1 X48.135 Y180.32 E19.88585
G1 X47.608 Y181.069 E19.97723
G1 X47.187 Y181.879 E20.06832
G1 X46.881 Y182.743 E20.15978
G1 X46.695 Y183.638 E20.25099
G1 X46.636 Y184.499 E20.3371
G1 X46.636 Y192.603 E21.14572
G1 X46.695 Y193.464 E21.23184
G1 X46.881 Y194.359 E21.32305
G1 X47.189 Y195.222 E21.41448
G1 X47.608 Y196.032 E21.50547
G1 X48.135 Y196.781 E21.59685
G1 X48.761 Y197.45 E21.68827
G1 X49.47 Y198.027 E21.77948
G1 X50.254 Y198.503 E21.871
G1 X51.092 Y198.867 E21.96217
G1 X51.973 Y199.114 E22.05346
G0 F6000 X52.095 Y198.525
G1 F1200 X52.92 Y198.638 E22.13655
G1 X53.752 Y198.638 E22.21957
G1 X54.577 Y198.525 E22.30265
G1 X55.38 Y198.3 E22.38586
G1 X56.142 Y197.969 E22.46876
G1 X56.855 Y197.536 E22.55199
G1 X57.501 Y197.01 E22.63512
G1 X58.07 Y196.402 E22.71821
G1 X58.55 Y195.721 E22.80134
G1 X58.934 Y194.982 E22.88444
G1 X59.212 Y194.197 E22.96753
G1 X59.382 Y193.382 E23.0506
G1 X59.436 Y192.581 E23.13071
G1 X59.436 Y184.521 E23.93494
G1 X59.382 Y183.72 E24.01505
G1 X59.212 Y182.905 E24.09812
G1 X58.934 Y182.119 E24.1813
G1 X58.55 Y181.38 E24.2644
G1 X58.07 Y180.699 E24.34754
G1 X57.501 Y180.091 E24.43063
G1 X56.855 Y179.564 E24.51381
G1 X56.142 Y179.133 E24.59694
G1 X55.381 Y178.801 E24.67979
G1 X54.577 Y178.576 E24.76309
G1 X53.752 Y178.463 E24.84618
G1 X52.92 Y178.463 E24.9292
G1 X52.095 Y178.576 E25.01229
G1 X51.292 Y178.801 E25.0955
G1 X50.53 Y179.133 E25.17843
G1 X49.817 Y179.564 E25.26156
G1 X49.171 Y180.091 E25.34475
G1 X48.602 Y180.699 E25.42784
G1 X48.122 Y181.381 E25.51105
G1 X47.739 Y182.119 E25.59402
G1 X47.46 Y182.905 E25.67724
G1 X47.291 Y183.72 E25.76029
G1 X47.236 Y184.52 E25.8403
G1 X47.236 Y192.582 E26.64473
G1 X47.291 Y193.382 E26.72475
G1 X47.46 Y194.197 E26.8078
G1 X47.74 Y194.982 E26.89096
G1 X48.122 Y195.72 E26.97388
G1 X48.602 Y196.402 E27.05709
G1 X49.171 Y197.01 E27.14018
G1 X49.817 Y197.536 E27.2233
G1 X50.53 Y197.969 E27.30654
G1 X51.293 Y198.3 E27.38953
G1 X52.095 Y198.525 E27.47264
G0 F6000 X52.217 Y197.936
;TYPE:WALL-OUTER
G1 F1200 X52.961 Y198.038 E27.54757
G1 X53.711 Y198.038 E27.62241
G1 X54.455 Y197.936 E27.69734
G1 X55.179 Y197.733 E27.77236
G1 X55.866 Y197.435 E27.84708
G1 X56.508 Y197.045 E27.92204
G1 X57.09 Y196.571 E27.99693
G1 X57.603 Y196.022 E28.0719
G1 X58.036 Y195.408 E28.14687
G1 X58.382 Y194.742 E28.22176
G1 X58.633 Y194.035 E28.29662
G1 X58.786 Y193.3 E28.37153
G1 X58.836 Y192.561 E28.44543
G1 X58.836 Y184.541 E29.24567
G1 X58.786 Y183.802 E29.31958
G1 X58.633 Y183.067 E29.39449
G1 X58.382 Y182.359 E29.46944
G1 X58.036 Y181.693 E29.54433
G1 X57.603 Y181.079 E29.6193
G1 X57.09 Y180.53 E29.69427
G1 X56.508 Y180.056 E29.76916
G1 X55.866 Y179.667 E29.84406
G1 X55.179 Y179.368 E29.91882
G1 X54.455 Y179.165 E29.99385
G1 X53.711 Y179.063 E30.06878
G1 X52.961 Y179.063 E30.14362
G1 X52.217 Y179.165 E30.21855
G1 X51.494 Y179.368 E30.29348
G1 X50.806 Y179.667 E30.36833
G1 X50.164 Y180.056 E30.44323
G1 X49.582 Y180.53 E30.51813
G1 X49.069 Y181.079 E30.5931
G1 X48.636 Y181.693 E30.66807
G1 X48.291 Y182.359 E30.74291
G1 X48.039 Y183.067 E30.81789
G1 X47.887 Y183.802 E30.89278
G1 X47.836 Y184.541 E30.9667
G1 X47.836 Y192.561 E31.76694
G1 X47.887 Y193.3 E31.84085
G1 X48.039 Y194.035 E31.91574
G1 X48.291 Y194.742 E31.99063
G1 X48.636 Y195.408 E32.06547
G1 X49.069 Y196.022 E32.14044
G1 X49.582 Y196.571 E32.21541
G1 X50.164 Y197.045 E32.29031
G1 X50.806 Y197.435 E32.36526
G1 X51.494 Y197.733 E32.44007
G1 X52.217 Y197.936 E32.515
G0 F6000 X52.083 Y198.582
G1 F1500 E29.515
G0 F6000 X57.852 Y198.654
G0 X205.754 Y198.669
G0 X205.754 Y128.633
G0 X201.036 Y128.351
;TYPE:WALL-INNER
G1 F1500 E32.515
G1 F1200 X206.036 Y128.351 E33.01391
G1 X206.036 Y198.951 E40.0584
G1 X57.549 Y198.951 E54.8745
G1 X56.837 Y198.951 E54.94554
G1 X57.549 Y198.518 E54.98127
G1 X58.321 Y197.89 E55.08056
G1 X59.002 Y197.162 E55.18003
G1 X59.578 Y196.347 E55.27961
G1 X60.038 Y195.461 E55.37922
G1 X60.37 Y194.521 E55.47869
G1 X60.574 Y193.546 E55.57809
G1 X60.636 Y192.621 E55.67059
G1 X60.636 Y184.481 E56.4828
G1 X60.574 Y183.556 E56.57531
G1 X60.37 Y182.581 E56.6747
G1 X60.038 Y181.64 E56.77427
G1 X59.578 Y180.754 E56.87388
G1 X59.002 Y179.939 E56.97346
G1 X58.323 Y179.213 E57.07264
G1 X57.549 Y178.58 E57.17241
G1 X56.694 Y178.065 E57.272
G1 X55.785 Y177.667 E57.37102
G1 X54.821 Y177.398 E57.47088
G1 X53.834 Y177.263 E57.57028
G1 X52.838 Y177.263 E57.66966
G1 X51.851 Y177.398 E57.76906
G1 X50.888 Y177.667 E57.86883
G1 X49.978 Y178.065 E57.96793
G1 X49.123 Y178.58 E58.06753
G1 X48.349 Y179.213 E58.1673
G1 X47.668 Y179.941 E58.26676
G1 X47.094 Y180.757 E58.36631
G1 X46.635 Y181.639 E58.46552
G1 X46.302 Y182.581 E58.56521
G1 X46.099 Y183.556 E58.66459
G1 X46.036 Y184.478 E58.7568
G1 X46.036 Y192.624 E59.56961
G1 X46.099 Y193.546 E59.66182
G1 X46.302 Y194.522 E59.76129
G1 X46.638 Y195.462 E59.8609
G1 X47.094 Y196.344 E59.95997
G1 X47.668 Y197.16 E60.05952
G1 X48.351 Y197.89 E60.15927
G1 X49.123 Y198.518 E60.25857
G1 X49.836 Y198.951 E60.3418
G1 X49.123 Y198.951 E60.36548
G1 X33.388 Y198.951 E61.93552
G1 X32.932 Y198.918 E61.98114
G1 X32.525 Y198.829 E62.02271
G1 X32.135 Y198.684 E62.06423
G1 X31.771 Y198.486 E62.10557
G1 X31.446 Y198.242 E62.14612
G1 X31.144 Y197.941 E62.18867
G1 X30.901 Y197.615 E62.22924
G1 X30.702 Y197.25 E62.27072
G1 X30.558 Y196.865 E62.31173
G1 X30.469 Y196.455 E62.3536
G1 X30.436 Y195.999 E62.39922
G1 X30.436 Y36.103 E78.3537
G1 X30.469 Y35.646 E78.39942
G1 X30.558 Y35.237 E78.44119
G1 X30.702 Y34.852 E78.4822
G1 X30.901 Y34.487 E78.52368
G1 X31.146 Y34.158 E78.56461
G1 X31.446 Y33.859 E78.60688
G1 X31.771 Y33.615 E78.64743
G1 X32.135 Y33.417 E78.68877
G1 X32.524 Y33.272 E78.7302
G1 X32.914 Y33.186 E78.77005
G1 X33.424 Y33.151 E78.82105
G1 X49.123 Y33.151 E80.38751
G1 X49.835 Y33.151 E80.45855
G1 X49.123 Y33.58 E80.49386
G1 X48.349 Y34.213 E80.59363
G1 X47.668 Y34.941 E80.69309
G1 X47.094 Y35.757 E80.79264
G1 X46.635 Y36.639 E80.89185
G1 X46.302 Y37.581 E80.99154
G1 X46.099 Y38.556 E81.09092
G1 X46.036 Y39.478 E81.18313
G1 X46.036 Y47.624 E81.99594
G1 X46.099 Y48.546 E82.08815
G1 X46.302 Y49.522 E82.18762
G1 X46.638 Y50.462 E82.28723
G1 X47.094 Y51.344 E82.3863
G1 X47.668 Y52.16 E82.48585
G1 X48.351 Y52.89 E82.5856
G1 X49.123 Y53.518 E82.6849
G1 X49.978 Y54.037 E82.78469
G1 X50.891 Y54.434 E82.88403
G1 X51.851 Y54.703 E82.98351
G1 X52.838 Y54.838 E83.08291
G1 X53.834 Y54.838 E83.18229
G1 X54.821 Y54.703 E83.28169
G1 X55.782 Y54.434 E83.38127
G1 X56.696 Y54.037 E83.4807
G1 X57.549 Y53.518 E83.58033
G1 X58.321 Y52.89 E83.67963
G1 X59.002 Y52.162 E83.7791
G1 X59.578 Y51.347 E83.87868
G1 X60.038 Y50.461 E83.97829
G1 X60.37 Y49.521 E84.07776
G1 X60.574 Y48.546 E84.17715
G1 X60.636 Y47.621 E84.26966
G1 X60.636 Y39.481 E85.08187
G1 X60.574 Y38.556 E85.17437
G1 X60.37 Y37.581 E85.27376
G1 X60.038 Y36.64 E85.37333
G1 X59.578 Y35.754 E85.47294
G1 X59.002 Y34.939 E85.57252
G1 X58.323 Y34.213 E85.67171
G1 X57.549 Y33.58 E85.77148
G1 X56.837 Y33.151 E85.85442
G1 X57.549 Y33.151 E85.87784
G1 X206.036 Y33.151 E100.69393
G1 X206.036 Y103.751 E107.73843
G1 X201.036 Y103.751 E108.23733
G1 X201.036 Y128.351 E110.69193
G0 F6000 X201.636 Y127.751
G1 F1200 X206.636 Y127.751 E111.19083
G1 X206.636 Y199.551 E118.35507
G1 X54.699 Y199.551 E133.5154
G1 X53.793 Y199.551 E133.57192
G1 X52.879 Y199.551 E133.61958
G1 X51.973 Y199.551 E133.6761
G1 X33.373 Y199.551 E135.53201
G1 X32.844 Y199.513 E135.58493
G1 X32.354 Y199.406 E135.63498
G1 X31.888 Y199.232 E135.68461
G1 X31.444 Y198.991 E135.73502
G1 X31.05 Y198.695 E135.78419
G1 X30.691 Y198.337 E135.83478
G1 X30.395 Y197.941 E135.88411
G1 X30.156 Y197.503 E135.9339
G1 X29.981 Y197.033 E135.98394
G1 X29.874 Y196.543 E136.03398
G1 X29.836 Y196.014 E136.0869
G1 X29.836 Y36.088 E152.04438
G1 X29.874 Y35.558 E152.0974
G1 X29.981 Y35.069 E152.14735
G1 X30.156 Y34.599 E152.19739
G1 X30.395 Y34.161 E152.24718
G1 X30.692 Y33.763 E152.29673
G1 X31.05 Y33.406 E152.34718
G1 X31.444 Y33.11 E152.39635
G1 X31.888 Y32.869 E152.44676
G1 X32.354 Y32.695 E152.49639
G1 X32.831 Y32.59 E152.54513
G1 X33.398 Y32.551 E152.60184
G1 X51.973 Y32.551 E154.45526
G1 X52.879 Y32.551 E154.51163
G1 X53.793 Y32.551 E154.55913
G1 X54.699 Y32.551 E154.6155
G1 X206.636 Y32.551 E169.77583
G1 X206.636 Y104.351 E176.94007
G1 X201.636 Y104.351 E177.43897
G1 X201.636 Y127.751 E179.77383
G0 F6000 X202.236 Y127.151
G1 F1200 X207.236 Y127.151 E180.27273
G1 X207.236 Y200.151 E187.5567
G1 X33.358 Y200.151 E204.90632
G1 X32.756 Y200.108 E204.96654
G1 X32.183 Y199.983 E205.02506
G1 X31.637 Y199.779 E205.08322
G1 X31.119 Y199.497 E205.14207
G1 X30.654 Y199.148 E205.20008
G1 X30.238 Y198.733 E205.25871
G1 X29.888 Y198.266 E205.31694
G1 X29.609 Y197.753 E205.37521
G1 X29.404 Y197.204 E205.43368
G1 X29.279 Y196.631 E205.4922
G1 X29.236 Y196.029 E205.55242
G1 X29.236 Y36.073 E221.5129
G1 X29.279 Y35.47 E221.57322
G1 X29.404 Y34.898 E221.63164
G1 X29.609 Y34.348 E221.69021
G1 X29.889 Y33.835 E221.74852
G1 X30.238 Y33.368 E221.80669
G1 X30.654 Y32.953 E221.86533
G1 X31.119 Y32.604 E221.92334
G1 X31.637 Y32.322 E221.98219
G1 X32.183 Y32.118 E222.04035
G1 X32.75 Y31.994 E222.09826
G1 X33.371 Y31.951 E222.16037
G1 X207.236 Y31.951 E239.50869
G1 X207.236 Y104.951 E246.79266
G1 X202.236 Y104.951 E247.29156
G1 X202.236 Y127.151 E249.50669
G0 F6000 X202.836 Y126.551
;TYPE:WALL-OUTER
G1 F1200 X207.836 Y126.551 E250.00559
G1 X207.836 Y200.751 E257.4093
G1 X33.343 Y200.751 E274.82028
G1 X32.669 Y200.703 E274.8877
G1 X32.012 Y200.56 E274.95479
G1 X31.383 Y200.325 E275.02179
G1 X30.797 Y200.005 E275.08841
G1 X30.258 Y199.601 E275.15562
G1 X29.785 Y199.129 E275.2223
G1 X29.382 Y198.591 E275.28937
